X: 104
T: Homeward Bound
T: Reel, D
L: 1/16
M: 2/2
K: D
|: A,2| D4D2E2 F2E2D2F2| A4A2F2 A2B2d2e2| f2a2e2d2 B4d2B2| A2F2E2F2 D2B,2A,2B,2| 
D4D2E2 F2E2D2F2| A4A2F2 A2B2d2e2| f2a2e2d2 B4d2B2| A2F2E2F2 D6:| 
|: g2| f2d2f2g2 a2f2d2f2| e4e2d2 e2f2g2e2| f2d2f2g2 a2f2d2f2| e2d2e2f2 d4d2g2| 
f2d2f2g2 a2f2d2f2| e4e2d2 e2f2g4| f1g1a2e2d2 B4d2B2| A2F2E2F2 D6:| 
D: Brenda Stubbert, House Sessions, ACC-49398, 1992
D: Buddy MacMaster, The Judique Flyer
